app/img/fb.svg

<svg width="12" height="20" viewBox="0 0 12 20" fill="none" xmlns="http://www.w3.org/2000/svg">
<path d="M10.9997 0.00416129L8.4062 0C5.49246 0 3.60948 1.93188 3.60948 4.92198V7.19134H1.0018C0.776467 7.19134 0.593994 7.37402 0.593994 7.59935V10.8874C0.593994 11.1127 0.776675 11.2952 1.0018 11.2952H3.60948V19.592C3.60948 19.8173 3.79195 19.9998 4.01728 19.9998H7.41956C7.64489 19.9998 7.82736 19.8171 7.82736 19.592V11.2952H10.8763C11.1017 11.2952 11.2841 11.1127 11.2841 10.8874L11.2854 7.59935C11.2854 7.49116 11.2423 7.38754 11.166 7.31097C11.0896 7.23441 10.9856 7.19134 10.8774 7.19134H7.82736V5.26757C7.82736 4.34293 8.0477 3.87354 9.25219 3.87354L10.9993 3.87291C11.2244 3.87291 11.4069 3.69023 11.4069 3.46511V0.411968C11.4069 0.18705 11.2246 0.00457742 10.9997 0.00416129Z" fill="white"/>
</svg>

<svg width="12" height="20" fill="none" xmlns="http://www.w3.org/2000/svg"><path d="M11 .004L8.406 0C5.492 0 3.61 1.932 3.61 4.922v2.27H1.002a.408.408 0 00-.408.407v3.288c0 .226.183.408.408.408h2.607v8.297c0 .225.183.408.408.408H7.42a.408.408 0 00.407-.408v-8.297h3.05a.408.408 0 00.407-.408l.001-3.288a.409.409 0 00-.408-.408h-3.05V5.268c0-.925.22-1.394 1.425-1.394L11 3.873a.408.408 0 00.408-.408V.412A.408.408 0 0011 .004z" fill="#fff"/></svg>
